X:1
T:Title
%%score 1 { ( 2 4 ) | ( 3 5 ) }
L:1/8
Q:1/4=80
M:4/4
K:G
V:1 treble nm="Voice"
V:2 treble nm="Piano"
V:4 treble 
V:3 bass 
V:5 bass 
V:1
"^Andante grazioso" z8 | z4 z2!p! D2 | B3 G B d e2 | d6 B2 | A3 A B2 ^c2 | !breath!d6 A2 | %6
 d3 d e2 d2 | (c2 B2) !breath!A2 G2 | F3 F A2 G2 | F4- F z A2 | A3 A ^G2 A2 | (d4 c2) B2 | %12
 G3 G B2 d2 | e6 c2 | B3 B (A2 D2) | !fermata!G8 |] %16
V:2
!p!"^Langsam giocoso"!<(! (B2 GB d3 e!<)! |!>(! d4!>)! [FAc]4) | %2
!p!!<(! ([DGB]4 [DGd]3!<)! [EGce]) |!>(! (d4 B3 d!>)! |!p!!<(! A3!<)! A B2 ^c2) | [DAd]4 [FA]4 | %6
 ([=FB]3 [FB] [Fc]2 [Fd]2 |!>(! ([Ge]2)!>)! [D=FB]2) [CEA]2 [CEG]2 |!<(! (F3 F A2 G2!<)! | %9
 F4 F) z A2 | A3 A ^G2 A2 |!>(! (d4!>)! c2) B2 |!<(! (G3 G!<)! B2 d2 | [ce]6) c2 | B3 B (A2 D2 | %15
 !fermata!G8) |] %16
V:3
 [G,B,D]4 [G,B,D]4 | [G,B,D]4 [G,CD]4 | [G,B,]4 [G,B,]3 [G,C] | ([G,-C]2 [G,B,]6) | %4
 [A,E]3 [A,E] [A,DE]2 [A,E]2 | ([F,A,]4 [D,D]4) | ([G,D]3 [G,D] [G,C]2 [G,B,]2 | %7
 [C,G,]4) C,2 [C,G,]2 | (A,3 A, A,2 A,2 | A,4 A,) z A,2 | A,3 A, A,2 A,2 | A,6 [D,G,]2 | %12
 ([E,G,]3 [E,G,] [D,G,]2 [B,,G,]2 | [C,G,]6) [C,G,E]2 | [D,G,D]3 [D,G,D] [D,F,C]2 [D,F,C]2 | %15
 !fermata![G,,G,B,]8 |] %16
V:4
 x8 | x8 | x8 | ([EG-]2 [DG]6) | G3 G [FA]2 G2 | x8 | x8 | x8 | (^C3 C C2 C2 | D4 D) z F2 | %10
 F3 F =F2 ^F2 | (G4 F2) G2 | (B,3 B, D2 G2 | G6) x2 | G3 G x4 | D8 |] %16
V:5
 x8 | x8 | x8 | x8 | x8 | x8 | x8 | x8 | A,,3 A,, A,,2 A,,2 | D,4 D, x3 | D,3 D, D,2 D,2 | %11
 (D,4 ^D,2) x2 | x8 | x8 | x8 | x8 |] %16

